!!!COM:	Josquin des Pres
**kern	**kern
*part2	*part1
*staff2	*staff1
*clefF4	*clefGv2
*k[b-]	*k[b-]
*M2/1	*M2/1
=1-	=1-
[0GG	0D
=2	=2
1GG]	1D
1GG	1G
=3	=3
0C	1G
.	[1G
=4	=4
1.C	2G]
.	2E
.	[1E
2AA	.
=5	=5
0AA	1E]
.	[1c
=6	=6
1.F	2c]
.	2A
.	[1A
2D	.
=7	=7
1.D	2A]
.	4B-
.	4c
.	[1d
4E	.
4F	.
=8	=8
0G	1d]
.	[1G
=9	=9
1r	2G]
.	2A
[1GG	2B-
.	2c
=10	=10
2GG]	1d
2AA	.
2BB-	[1D
2C	.
=11	=11
1.D	2D]
.	2E
.	2F
2E	2G
=12	=12
1F	1A
1G	1B-
=13	=13
1D	2A
.	1d
[1B-	.
.	[2G
=14	=14
1B-]	2G]
.	2d
[1A	2c
.	2f
=15	=15
2A]	2e
1B-	1d
4A	4c
4G	4B-
=16	=16
1.F	2A
.	2d
.	2c
[2G	[2B-
=17	=17
2G]	2B-]
4F	4A
4E	4G
1D	2F
.	2B-
=18	=18
1r	2A
.	1G
[1GG	.
.	4F
.	4E
=19	=19
1GG]	2.D
.	4E
2.D	2.F
4E	4G
=20	=20
2.F	2.A
4G	4B-
2A	2c
2D	[2d
=21	=21
2F	2d]
2G	4c
.	4B-
1E	4c
.	4B-
.	4A
.	4G
=22	=22
0D	0F
==	==
*-	*-
